images/organisations/geolytix.565c4f347c06a8a1.svg

<svg version="1.2" baseProfile="tiny" width="170mm" height="30mm" viewBox="0 0 17000 3000" preserveAspectRatio="xMidYMid" fill-rule="evenodd" stroke-width="28.222" stroke-linejoin="round" xmlns="http://www.w3.org/2000/svg"><path d="M1469 300l70 1 68 4 66 7 63 10 62 12 59 15 57 18 55 20 53 23 50 25 49 27 47 29 45 31 43 33 41 36 39 37-453 447-21-19-22-19-22-17-24-16-24-16-25-14-26-13-27-13-28-11-29-10-31-8-32-6-33-6-35-3-36-2-38-1-31 1-30 2-30 3-29 5-28 7-28 8-27 9-27 11-26 12-24 13-24 14-24 16-22 16-21 18-20 19-20 20-18 21-18 23-16 23-16 24-14 26-13 26-12 28-11 28-10 29-9 31-7 30-6 32-5 32-3 33-2 34-1 34 1 40 2 39 4 37 5 36 7 35 8 33 10 33 11 30 13 30 14 28 14 28 16 25 17 25 17 23 19 22 20 21 21 19 21 19 22 17 23 15 24 15 24 13 25 12 26 11 27 10 26 8 27 7 27 5 28 5 27 3 28 2 29 1 54-2 52-4 49-7 46-9 43-12 40-15 37-18 34-21 32-23 28-26 27-28 24-32 21-34 19-36 16-40 14-42h-555v-471h1178l4 28 3 27 3 28 1 26 3 105-3 96-4 47-5 46-6 45-8 44-9 42-11 42-12 40-13 40-14 38-15 38-17 37-17 35-19 35-20 33-21 33-21 31-23 31-23 29-24 28-25 28-26 26-27 25-28 24-28 24-29 22-29 21-30 20-31 19-31 18-31 17-65 31-66 27-67 23-69 18-69 15-70 10-69 6-70 2-69-1-67-4-67-7-65-10-63-13-62-16-60-18-60-21-57-24-55-26-54-28-51-31-49-33-47-35-45-37-43-39-41-42-38-44-36-45-34-48-32-49-29-52-27-53-24-56-22-57-19-59-17-59-13-62-10-62-7-64-5-65-1-67 2-89 4-43 4-43 6-42 7-42 9-42 10-40 11-40 12-39 14-39 14-38 16-36 17-36 18-36 19-34 20-34 22-33 22-32 23-31 25-30 26-29 26-29 28-28 29-26 30-26 30-25 31-24 33-23 33-21 33-21 35-20 36-19 36-17 37-17 38-15 39-14 40-13 81-23 42-9 43-8 87-13 90-8 91-2z"/><path fill="none" d="M199 299h2416v2459H199z"/><path d="M4718 2714H2866V344h1852v572H3510v313h1124v572H3510v341h1208v572z"/><path fill="none" d="M2866 343h1854v2372H2866z"/><path d="M6151 300l68 1 67 5 65 7 64 10 62 13 61 16 60 18 58 22 57 24 54 27 53 28 50 31 49 33 47 36 44 38 43 40 41 42 38 43 36 46 33 48 31 50 29 51 27 54 24 55 22 57 18 58 16 60 13 60 10 62 8 64 4 64 1 66-1 66-4 64-8 64-10 62-13 60-16 60-18 58-22 57-24 55-27 54-29 51-31 50-33 48-36 45-38 44-41 42-43 40-44 38-47 35-49 34-50 30-53 29-54 27-57 24-58 21-60 19-61 16-62 13-64 10-65 7-67 5-68 1-67-1-67-5-65-7-64-10-62-13-61-16-60-19-58-21-57-24-54-27-53-29-50-30-49-34-47-35-44-38-43-40-41-42-38-44-36-45-33-48-31-50-29-51-27-54-24-55-22-57-18-58-16-60-13-60-10-62-8-64-4-64-1-66 1-66 4-64 8-64 10-62 13-60 16-60 18-58 22-57 24-55 27-54 29-51 31-50 33-48 36-46 38-43 41-42 43-40 44-38 47-36 49-33 50-31 53-28 54-27 57-24 58-22 60-18 61-16 62-13 64-10 65-7 67-5 67-1zm0 616l-32 1-31 2-31 3-30 5-29 7-29 7-28 9-27 11-26 12-25 13-24 14-24 15-23 16-21 18-21 18-20 20-19 21-18 22-16 22-16 24-15 25-13 26-12 26-11 28-10 28-9 30-7 30-6 30-5 32-3 32-2 32-1 34 1 33 2 33 3 32 5 32 6 30 7 30 9 29 10 29 11 28 12 26 13 26 15 25 16 23 16 23 18 22 19 21 20 20 21 18 21 18 23 16 24 15 24 14 25 13 26 12 27 10 28 10 29 7 29 7 30 4 31 4 31 2 32 1 32-1 31-2 31-4 30-4 29-7 29-7 27-10 28-10 26-12 26-13 24-14 24-15 22-16 22-18 21-18 20-20 19-21 18-22 16-23 16-23 14-25 14-26 12-26 11-28 10-29 9-29 7-30 6-30 5-32 3-32 2-33 1-33-1-34-2-32-3-32-5-32-6-30-7-30-9-30-10-28-11-28-12-26-14-26-14-25-16-24-16-22-18-22-19-21-20-20-21-18-22-18-22-16-24-15-24-14-26-13-26-12-28-11-27-9-29-7-29-7-30-5-31-3-31-2-32-1z"/><path fill="none" d="M4898 299h2508v2461H4898z"/><path d="M9443 2714H7658V344h644v1777h1141v593z"/><path fill="none" d="M7658 343h1786v2372H7658z"/><g><path d="M10614 1817v897h-644v-889L9076 344h739l479 895 477-895h716l-873 1473z"/><path fill="none" d="M9076 343h2413v2372H9076z"/></g><g><path d="M13532 936h-674v1778h-643V936h-674V344h1991v592z"/><path fill="none" d="M11540 343h1993v2372h-1993z"/></g><g><path d="M14377 2714h-644V344h644v2370z"/><path fill="none" d="M13733 343h645v2372h-645z"/></g><g><path d="M16083 1520l750 1194h-728l-415-703-413 703h-723l750-1192-750-1178h728l415 701 413-701h723l-750 1176z"/><path fill="none" d="M14554 343h2281v2372h-2281z"/></g></svg>

<?xml version="1.0" encoding="UTF-8"?>
<svg version="1.2" baseProfile="tiny" width="170mm" height="30mm" viewBox="0 0 17000 3000" preserveAspectRatio="xMidYMid" fill-rule="evenodd" stroke-width="28.222" stroke-linejoin="round" xmlns="http://www.w3.org/2000/svg" xmlns:xlink="http://www.w3.org/1999/xlink" xml:space="preserve">
   <g>
    <path fill="rgb(0,0,0)" stroke="none" d="M 1469,300 L 1539,301 1607,305 1673,312 1736,322 1798,334 1857,349 1914,367 1969,387 2022,410 2072,435 2121,462 2168,491 2213,522 2256,555 2297,591 2336,628 1883,1075 1862,1056 1840,1037 1818,1020 1794,1004 1770,988 1745,974 1719,961 1692,948 1664,937 1635,927 1604,919 1572,913 1539,907 1504,904 1468,902 1430,901 1399,902 1369,904 1339,907 1310,912 1282,919 1254,927 1227,936 1200,947 1174,959 1150,972 1126,986 1102,1002 1080,1018 1059,1036 1039,1055 1019,1075 1001,1096 983,1119 967,1142 951,1166 937,1192 924,1218 912,1246 901,1274 891,1303 882,1334 875,1364 869,1396 864,1428 861,1461 859,1495 858,1529 859,1569 861,1608 865,1645 870,1681 877,1716 885,1749 895,1782 906,1812 919,1842 933,1870 947,1898 963,1923 980,1948 997,1971 1016,1993 1036,2014 1057,2033 1078,2052 1100,2069 1123,2084 1147,2099 1171,2112 1196,2124 1222,2135 1249,2145 1275,2153 1302,2160 1329,2165 1357,2170 1384,2173 1412,2175 1441,2176 1495,2174 1547,2170 1596,2163 1642,2154 1685,2142 1725,2127 1762,2109 1796,2088 1828,2065 1856,2039 1883,2011 1907,1979 1928,1945 1947,1909 1963,1869 1977,1827 1422,1827 1422,1356 2600,1356 2604,1384 2607,1411 2610,1439 2611,1465 2614,1570 2611,1666 2607,1713 2602,1759 2596,1804 2588,1848 2579,1890 2568,1932 2556,1972 2543,2012 2529,2050 2514,2088 2497,2125 2480,2160 2461,2195 2441,2228 2420,2261 2399,2292 2376,2323 2353,2352 2329,2380 2304,2408 2278,2434 2251,2459 2223,2483 2195,2507 2166,2529 2137,2550 2107,2570 2076,2589 2045,2607 2014,2624 1949,2655 1883,2682 1816,2705 1747,2723 1678,2738 1608,2748 1539,2754 1469,2756 1400,2755 1333,2751 1266,2744 1201,2734 1138,2721 1076,2705 1016,2687 956,2666 899,2642 844,2616 790,2588 739,2557 690,2524 643,2489 598,2452 555,2413 514,2371 476,2327 440,2282 406,2234 374,2185 345,2133 318,2080 294,2024 272,1967 253,1908 236,1849 223,1787 213,1725 206,1661 201,1596 200,1529 202,1440 206,1397 210,1354 216,1312 223,1270 232,1228 242,1188 253,1148 265,1109 279,1070 293,1032 309,996 326,960 344,924 363,890 383,856 405,823 427,791 450,760 475,730 501,701 527,672 555,644 584,618 614,592 644,567 675,543 708,520 741,499 774,478 809,458 845,439 881,422 918,405 956,390 995,376 1035,363 1116,340 1158,331 1201,323 1288,310 1378,302 1469,300 Z"/>
    <rect fill="none" stroke="none" x="199" y="299" width="2416" height="2459"/>
   </g>
   <g>
    <path fill="rgb(0,0,0)" stroke="none" d="M 4718,2714 L 2866,2714 2866,344 4718,344 4718,916 3510,916 3510,1229 4634,1229 4634,1801 3510,1801 3510,2142 4718,2142 4718,2714 Z"/>
    <rect fill="none" stroke="none" x="2866" y="343" width="1854" height="2372"/>
   </g>
   <g>
    <path fill="rgb(0,0,0)" stroke="none" d="M 6151,300 L 6219,301 6286,306 6351,313 6415,323 6477,336 6538,352 6598,370 6656,392 6713,416 6767,443 6820,471 6870,502 6919,535 6966,571 7010,609 7053,649 7094,691 7132,734 7168,780 7201,828 7232,878 7261,929 7288,983 7312,1038 7334,1095 7352,1153 7368,1213 7381,1273 7391,1335 7399,1399 7403,1463 7404,1529 7403,1595 7399,1659 7391,1723 7381,1785 7368,1845 7352,1905 7334,1963 7312,2020 7288,2075 7261,2129 7232,2180 7201,2230 7168,2278 7132,2323 7094,2367 7053,2409 7010,2449 6966,2487 6919,2522 6870,2556 6820,2586 6767,2615 6713,2642 6656,2666 6598,2687 6538,2706 6477,2722 6415,2735 6351,2745 6286,2752 6219,2757 6151,2758 6084,2757 6017,2752 5952,2745 5888,2735 5826,2722 5765,2706 5705,2687 5647,2666 5590,2642 5536,2615 5483,2586 5433,2556 5384,2522 5337,2487 5293,2449 5250,2409 5209,2367 5171,2323 5135,2278 5102,2230 5071,2180 5042,2129 5015,2075 4991,2020 4969,1963 4951,1905 4935,1845 4922,1785 4912,1723 4904,1659 4900,1595 4899,1529 4900,1463 4904,1399 4912,1335 4922,1273 4935,1213 4951,1153 4969,1095 4991,1038 5015,983 5042,929 5071,878 5102,828 5135,780 5171,734 5209,691 5250,649 5293,609 5337,571 5384,535 5433,502 5483,471 5536,443 5590,416 5647,392 5705,370 5765,352 5826,336 5888,323 5952,313 6017,306 6084,301 6151,300 Z M 6151,916 L 6119,917 6088,919 6057,922 6027,927 5998,934 5969,941 5941,950 5914,961 5888,973 5863,986 5839,1000 5815,1015 5792,1031 5771,1049 5750,1067 5730,1087 5711,1108 5693,1130 5677,1152 5661,1176 5646,1201 5633,1227 5621,1253 5610,1281 5600,1309 5591,1339 5584,1369 5578,1399 5573,1431 5570,1463 5568,1495 5567,1529 5568,1562 5570,1595 5573,1627 5578,1659 5584,1689 5591,1719 5600,1748 5610,1777 5621,1805 5633,1831 5646,1857 5661,1882 5677,1905 5693,1928 5711,1950 5730,1971 5750,1991 5771,2009 5792,2027 5815,2043 5839,2058 5863,2072 5888,2085 5914,2097 5941,2107 5969,2117 5998,2124 6027,2131 6057,2135 6088,2139 6119,2141 6151,2142 6183,2141 6214,2139 6245,2135 6275,2131 6304,2124 6333,2117 6360,2107 6388,2097 6414,2085 6440,2072 6464,2058 6488,2043 6510,2027 6532,2009 6553,1991 6573,1971 6592,1950 6610,1928 6626,1905 6642,1882 6656,1857 6670,1831 6682,1805 6693,1777 6703,1748 6712,1719 6719,1689 6725,1659 6730,1627 6733,1595 6735,1562 6736,1529 6735,1495 6733,1463 6730,1431 6725,1399 6719,1369 6712,1339 6703,1309 6693,1281 6682,1253 6670,1227 6656,1201 6642,1176 6626,1152 6610,1130 6592,1108 6573,1087 6553,1067 6532,1049 6510,1031 6488,1015 6464,1000 6440,986 6414,973 6388,961 6360,950 6333,941 6304,934 6275,927 6245,922 6214,919 6183,917 6151,916 Z"/>
    <rect fill="none" stroke="none" x="4898" y="299" width="2508" height="2461"/>
   </g>
   <g>
    <path fill="rgb(0,0,0)" stroke="none" d="M 9443,2714 L 7658,2714 7658,344 8302,344 8302,2121 9443,2121 9443,2714 Z"/>
    <rect fill="none" stroke="none" x="7658" y="343" width="1786" height="2372"/>
   </g>
   <g>
    <path fill="rgb(0,0,0)" stroke="none" d="M 10614,1817 L 10614,2714 9970,2714 9970,1825 9076,344 9815,344 10294,1239 10771,344 11487,344 10614,1817 Z"/>
    <rect fill="none" stroke="none" x="9076" y="343" width="2413" height="2372"/>
   </g>
   <g>
    <path fill="rgb(0,0,0)" stroke="none" d="M 13532,936 L 12858,936 12858,2714 12215,2714 12215,936 11541,936 11541,344 13532,344 13532,936 Z"/>
    <rect fill="none" stroke="none" x="11540" y="343" width="1993" height="2372"/>
   </g>
   <g>
    <path fill="rgb(0,0,0)" stroke="none" d="M 14377,2714 L 13733,2714 13733,344 14377,344 14377,2714 Z"/>
    <rect fill="none" stroke="none" x="13733" y="343" width="645" height="2372"/>
   </g>
   <g>
    <path fill="rgb(0,0,0)" stroke="none" d="M 16083,1520 L 16833,2714 16105,2714 15690,2011 15277,2714 14554,2714 15304,1522 14554,344 15282,344 15697,1045 16110,344 16833,344 16083,1520 Z"/>
    <rect fill="none" stroke="none" x="14554" y="343" width="2281" height="2372"/>
   </g>
</svg>
